resources/svg/schedule-play.svg

<svg xmlns="http://www.w3.org/2000/svg" viewBox="0 0 24 24" fill="currentColor"><path fill="none" stroke="currentColor" stroke-width="2" d="M14,0 L14,3 M1,7 L19,7 M6,0 L6,3 M4,11 L6,11 M8,11 L16,11 M4,15 L6,15 M8,15 L14,15 M13,19 L1,19 L1,3 L19,3 L19,13 M18,23 C20.7614237,23 23,20.7614237 23,18 C23,15.2385763 20.7614237,13 18,13 C15.2385763,13 13,15.2385763 13,18 C13,20.7614237 15.2385763,23 18,23 Z M17.5,17 L19,18 L17.5,19 L17.5,17 Z"/></svg>

<svg viewBox="0 0 24 24"><path fill="none" stroke="currentColor" stroke-width="2" d="M14 0v3M1 7h18M6 0v3m-2 8h2m2 0h8M4 15h2m2 0h6m-1 4H1V3h18v10m-1 10a5 5 0 1 0 0-10a5 5 0 0 0 0 10zm-.5-6l1.5 1l-1.5 1v-2z"/></svg>
